src/Icon/svgs/Instagram.svg

<svg xmlns="http://www.w3.org/2000/svg" xmlns:xlink="http://www.w3.org/1999/xlink" width="24" height="24" viewBox="0 0 24 24">
  <defs>
    <path id="instagram-a" d="M12.0000179,3 C14.4442532,3 14.7507428,3.01036041 15.7106885,3.05415994 C16.6686336,3.0978523 17.3228757,3.25000744 17.895342,3.47250621 C18.4871715,3.70247161 18.9890799,4.01021155 19.489452,4.51054797 C19.9897884,5.01092011 20.2975284,5.51282845 20.5275295,6.10465802 C20.7499926,6.67712433 20.9021477,7.33136644 20.9458401,8.28931151 C20.9896396,9.24925721 21,9.55574675 21,12.0000179 C21,14.4442532 20.9896396,14.7507428 20.9458401,15.7106885 C20.9021477,16.6686336 20.7499926,17.3228757 20.5275295,17.895342 C20.2975284,18.4871715 19.9897884,18.9890799 19.489452,19.489452 C18.9890799,19.9897884 18.4871715,20.2975284 17.895342,20.5275295 C17.3228757,20.7499926 16.6686336,20.9021477 15.7106885,20.9458401 C14.7507428,20.9896396 14.4442532,21 12.0000179,21 C9.55574675,21 9.24925721,20.9896396 8.28931151,20.9458401 C7.33136644,20.9021477 6.67712433,20.7499926 6.10465802,20.5275295 C5.51282845,20.2975284 5.01092011,19.9897884 4.51054797,19.489452 C4.01021155,18.9890799 3.70247161,18.4871715 3.47250621,17.895342 C3.25000744,17.3228757 3.0978523,16.6686336 3.05415994,15.7106885 C3.01036041,14.7507428 3,14.4442532 3,12.0000179 C3,9.55574675 3.01036041,9.24925721 3.05415994,8.28931151 C3.0978523,7.33136644 3.25000744,6.67712433 3.47250621,6.10465802 C3.70247161,5.51282845 4.01021155,5.01092011 4.51054797,4.51054797 C5.01092011,4.01021155 5.51282845,3.70247161 6.10465802,3.47250621 C6.67712433,3.25000744 7.33136644,3.0978523 8.28931151,3.05415994 C9.24925721,3.01036041 9.55574675,3 12.0000179,3 Z M12.0000179,4.62161872 C9.59690259,4.62161872 9.31224136,4.63080019 8.36322768,4.67409957 C7.48573657,4.71411219 7.00919338,4.86072987 6.69205761,4.98398304 C6.2719608,5.14724883 5.97215193,5.34227465 5.65723115,5.65723115 C5.34227465,5.97215193 5.14724883,6.2719608 4.98398304,6.69205761 C4.86072987,7.00919338 4.71411219,7.48573657 4.67409957,8.36322768 C4.63080019,9.31224136 4.62161872,9.59690259 4.62161872,12.0000179 C4.62161872,14.4030974 4.63080019,14.6877586 4.67409957,15.6367723 C4.71411219,16.5142634 4.86072987,16.9908066 4.98398304,17.3079424 C5.14724883,17.7280392 5.34231037,18.0278481 5.65723115,18.3427688 C5.97215193,18.6577254 6.2719608,18.8527512 6.69205761,19.016017 C7.00919338,19.1392701 7.48573657,19.2858878 8.36322768,19.3259004 C9.31213419,19.3691998 9.59672397,19.3783813 12.0000179,19.3783813 C14.403276,19.3783813 14.6879015,19.3691998 15.6367723,19.3259004 C16.5142634,19.2858878 16.9908066,19.1392701 17.3079424,19.016017 C17.7280392,18.8527512 18.0278481,18.6577254 18.3427688,18.3427688 C18.6577254,18.0278481 18.8527512,17.7280392 19.016017,17.3079424 C19.1392701,16.9908066 19.2858878,16.5142634 19.3259004,15.6367723 C19.3691998,14.6877586 19.3783813,14.4030974 19.3783813,12.0000179 C19.3783813,9.59690259 19.3691998,9.31224136 19.3259004,8.36322768 C19.2858878,7.48573657 19.1392701,7.00919338 19.016017,6.69205761 C18.8527512,6.2719608 18.6577254,5.97215193 18.3427688,5.65723115 C18.0278481,5.34227465 17.7280392,5.14724883 17.3079424,4.98398304 C16.9908066,4.86072987 16.5142634,4.71411219 15.6367723,4.67409957 C14.6877586,4.63080019 14.4030974,4.62161872 12.0000179,4.62161872 Z M12.0000179,15 C13.656862,15 15,13.656862 15,12.0000179 C15,10.343138 13.656862,9 12.0000179,9 C10.343138,9 9,10.343138 9,12.0000179 C9,13.656862 10.343138,15 12.0000179,15 Z M12.0000179,7.37838128 C14.552466,7.37838128 16.6216187,9.44753404 16.6216187,12.0000179 C16.6216187,14.552466 14.552466,16.6216187 12.0000179,16.6216187 C9.44753404,16.6216187 7.37838128,14.552466 7.37838128,12.0000179 C7.37838128,9.44753404 9.44753404,7.37838128 12.0000179,7.37838128 Z M17.8842313,7.19578796 C17.8842313,7.79226184 17.4006859,8.27577152 16.804212,8.27577152 C16.2077739,8.27577152 15.7242285,7.79226184 15.7242285,7.19578796 C15.7242285,6.59931407 16.2077739,6.11576867 16.804212,6.11576867 C17.4006859,6.11576867 17.8842313,6.59931407 17.8842313,7.19578796 Z"/>
  </defs>
  <use fill="#1B1C1D" fill-rule="evenodd" xlink:href="#instagram-a"/>
</svg>

<svg xmlns="http://www.w3.org/2000/svg" xmlns:xlink="http://www.w3.org/1999/xlink" width="24" height="24" xmlns:v="https://vecta.io/nano"><defs><path id="A" d="M12 3l3.711.054c.958.044 1.612.196 2.185.418A4.41 4.41 0 0 1 19.49 4.51a4.41 4.41 0 0 1 1.038 1.594c.222.572.375 1.227.418 2.185L21 12l-.054 3.711c-.044.958-.196 1.612-.418 2.185a4.41 4.41 0 0 1-1.038 1.594 4.41 4.41 0 0 1-1.594 1.038c-.572.222-1.227.375-2.185.418L12 21c-2.444 0-2.751-.01-3.711-.054s-1.612-.196-2.185-.418A4.41 4.41 0 0 1 4.51 19.49a4.41 4.41 0 0 1-1.038-1.594c-.222-.572-.375-1.227-.418-2.185L3 12l.054-3.711c.044-.958.196-1.612.418-2.185A4.41 4.41 0 0 1 4.51 4.51a4.41 4.41 0 0 1 1.594-1.038c.572-.222 1.227-.375 2.185-.418L12 3zm0 1.622l-3.637.052c-.877.04-1.354.187-1.671.31-.42.163-.72.358-1.035.673s-.51.615-.673 1.035c-.123.317-.27.794-.31 1.671L4.622 12l.052 3.637c.04.877.187 1.354.31 1.671.163.42.358.72.673 1.035s.615.51 1.035.673c.317.123.794.27 1.671.31l3.637.052 3.637-.052c.877-.04 1.354-.187 1.671-.31.42-.163.72-.358 1.035-.673s.51-.615.673-1.035c.123-.317.27-.794.31-1.671L19.378 12l-.052-3.637c-.04-.877-.187-1.354-.31-1.671-.163-.42-.358-.72-.673-1.035s-.615-.51-1.035-.673c-.317-.123-.794-.27-1.671-.31L12 4.622zM12 15a3 3 0 1 0 0-6 3 3 0 1 0 0 6zm0-7.622c2.552 0 4.622 2.069 4.622 4.622s-2.07 4.622-4.622 4.622S7.378 14.552 7.378 12 9.448 7.378 12 7.378zm5.884-.183a1.08 1.08 0 1 1-2.16 0 1.08 1.08 0 1 1 2.16 0z"/></defs><use fill="#1b1c1d" fill-rule="evenodd" xlink:href="#A"/></svg>
